packages/ui/public/icons/wallet-manage.svg

<svg width="25" height="24" viewBox="0 0 25 24" fill="none" xmlns="http://www.w3.org/2000/svg">
    <path d="M18.7275 3H6.72754C4.5184 3 2.72754 4.79086 2.72754 7V17C2.72754 19.2091 4.5184 21 6.72754 21H18.7275C20.9367 21 22.7275 19.2091 22.7275 17V7C22.7275 4.79086 20.9367 3 18.7275 3Z" stroke="white" stroke-width="1.5" stroke-linecap="round" stroke-linejoin="round"/>
    <path d="M2.72754 9.05078H6.0976C6.89324 9.05078 7.65626 9.36683 8.21887 9.92944C8.78148 10.4921 9.0976 11.2551 9.0976 12.0508C9.0976 12.8464 8.78148 13.6095 8.21887 14.1721C7.65626 14.7347 6.89324 15.0508 6.0976 15.0508H2.72754" stroke="white" stroke-width="1.5" stroke-linecap="round" stroke-linejoin="round"/>
</svg>

<svg width="25" height="24" fill="none" xmlns="http://www.w3.org/2000/svg"><path d="M18.727 3h-12a4 4 0 0 0-4 4v10a4 4 0 0 0 4 4h12a4 4 0 0 0 4-4V7a4 4 0 0 0-4-4Z" stroke="#fff" stroke-width="1.5" stroke-linecap="round" stroke-linejoin="round"/><path d="M2.728 9.05h3.37a3 3 0 1 1 0 6h-3.37" stroke="#fff" stroke-width="1.5" stroke-linecap="round" stroke-linejoin="round"/></svg>
